**harm	**harte	**timestamp	**phrase	**leadinstrument	**kern
*M4/4	*M4/4	*	*	*	*
*C:	*C:	*	*	*	*C:
1r;	N	0	.	r	1r;
=1	=1	=1	=1	=1	=1
*>A_intro	*>A_intro	*>A_intro	*>A_intro	*>A_intro	*>A_intro
1r	N	0.395	newline	r	1r
=2	=2	=2	=2	=2	=2
1r	N	2.436	.	r	1r
=3	=3	=3	=3	=3	=3
1r	N	4.478	.	r	1r
=4	=4	=4	=4	=4	=4
1r	N	6.52	.	r	1r
=5	=5	=5	=5	=5	=5
*>B_instrumental	*>B_instrumental	*>B_instrumental	*>B_instrumental	*>B_instrumental	*>B_instrumental
1V	G:sus4(b7,9)	8.561	newline	strings	1G 1b 1dd
=6	=6	=6	=6	=6	=6
1V	G:sus4(b7,9)	10.488	.	strings	1G 1b 1dd
=7	=7	=7	=7	=7	=7
1V	G:sus4(b7,9)	12.414	.	strings	1G 1b 1dd
=8	=8	=8	=8	=8	=8
1V	G:sus4(b7,9)	14.341	.	strings	1G 1b 1dd
=9	=9	=9	=9	=9	=9
1-VI7	A-:maj9	16.267	newline	strings	1A- 1cc 1ee- 1gg
=10	=10	=10	=10	=10	=10
1-VII	B-:maj	18.242	.	strings	1B- 1dd 1ff
=11	=11	=11	=11	=11	=11
1I7	C:maj7	20.216	.	strings	1C 1e 1g 1b
=12	=12	=12	=12	=12	=12
1I7	C:maj7	22.19	.	strings	1C 1e 1g 1b
=13	=13	=13	=13	=13	=13
*>C_verse	*>C_verse	*>C_verse	*>C_verse	*>C_verse	*>C_verse
1Ic	C:maj/5	24.164	newline	voice	1c 1e 1G
=14	=14	=14	=14	=14	=14
1V	G:maj	26.124	.	voice	1G 1b 1dd
=15	=15	=15	=15	=15	=15
1I7	C:maj7	28.085	.	voice	1C 1e 1g 1b
=16	=16	=16	=16	=16	=16
1I7	C:maj7	30.045	.	voice	1C 1e 1g 1b
=17	=17	=17	=17	=17	=17
1Ic	C:maj/5	32.005	newline	voice	1c 1e 1G
=18	=18	=18	=18	=18	=18
1V	G:maj	33.931	.	voice	1G 1b 1dd
=19	=19	=19	=19	=19	=19
1I7	C:maj7	35.856	.	voice	1C 1e 1g 1b
=20	=20	=20	=20	=20	=20
1Im7	C:7	37.781	.	voice	1C 1e 1g 1b
=21	=21	=21	=21	=21	=21
1IV7	F:maj7	39.706	newline	voice	1F 1a 1cc 1ee
=22	=22	=22	=22	=22	=22
1iii7	E:min7	41.657	.	voice	1E 1g 1b 1dd
=23	=23	=23	=23	=23	=23
1IV7	F:maj7	43.608	.	voice	1F 1a 1cc 1ee
=24	=24	=24	=24	=24	=24
1iii7	E:min7	45.56	.	voice	1E 1g 1b 1dd
=25	=25	=25	=25	=25	=25
1IV7	F:maj7	47.511	newline	voice	1F 1a 1cc 1ee
=26	=26	=26	=26	=26	=26
1II7	D:7	49.458	.	voice	1D 1f# 1a 1cc
=27	=27	=27	=27	=27	=27
1V	G:sus4(b7,9)	51.405	.	voice	1G 1b 1dd
=28	=28	=28	=28	=28	=28
1V	G:sus4(b7,9)	53.352	.	voice	1G 1b 1dd
=29	=29	=29	=29	=29	=29
*>B_chorus	*>B_chorus	*>B_chorus	*>B_chorus	*>B_chorus	*>B_chorus
1V	G:sus4(b7,9)	55.299	newline	voice	1G 1b 1dd
=30	=30	=30	=30	=30	=30
1V	G:sus4(b7,9)	57.243	.	voice	1G 1b 1dd
=31	=31	=31	=31	=31	=31
1V	G:sus4(b7,9)	59.188	.	voice	1G 1b 1dd
=32	=32	=32	=32	=32	=32
1V	G:sus4(b7,9)	61.133	.	voice	1G 1b 1dd
=33	=33	=33	=33	=33	=33
1-VI7	A-:maj9	63.078	newline	voice	1A- 1cc 1ee- 1gg
=34	=34	=34	=34	=34	=34
1-VII	B-:maj	65.034	.	voice	1B- 1dd 1ff
=35	=35	=35	=35	=35	=35
1I7	C:maj7	66.99	.	voice	1C 1e 1g 1b
=36	=36	=36	=36	=36	=36
1I7	C:maj7	68.946	.	voice	1C 1e 1g 1b
=37	=37	=37	=37	=37	=37
1V	G:sus4(b7,9)	70.902	newline	voice	1G 1b 1dd
=38	=38	=38	=38	=38	=38
1V	G:sus4(b7,9)	72.856	.	voice	1G 1b 1dd
=39	=39	=39	=39	=39	=39
1V	G:sus4(b7,9)	74.81	.	voice	1G 1b 1dd
=40	=40	=40	=40	=40	=40
1V	G:sus4(b7,9)	76.763	.	voice	1G 1b 1dd
=41	=41	=41	=41	=41	=41
1-VI7	A-:maj9	78.717	newline	voice	1A- 1cc 1ee- 1gg
=42	=42	=42	=42	=42	=42
1-VII	B-:maj	80.691	.	voice	1B- 1dd 1ff
=43	=43	=43	=43	=43	=43
1I7	C:maj7	82.665	.	voice	1C 1e 1g 1b
=44	=44	=44	=44	=44	=44
1I7	C:maj7	84.639	.	voice	1C 1e 1g 1b
=45	=45	=45	=45	=45	=45
*>C_verse	*>C_verse	*>C_verse	*>C_verse	*>C_verse	*>C_verse
1Ic	C:maj/5	86.613	newline	voice	1c 1e 1G
=46	=46	=46	=46	=46	=46
1V	G:maj	88.579	.	voice	1G 1b 1dd
=47	=47	=47	=47	=47	=47
1I7	C:maj7	90.544	.	voice	1C 1e 1g 1b
=48	=48	=48	=48	=48	=48
1I7	C:maj7	92.51	.	voice	1C 1e 1g 1b
=49	=49	=49	=49	=49	=49
1Ic	C:maj/5	94.476	newline	voice	1c 1e 1G
=50	=50	=50	=50	=50	=50
1V	G:maj	96.441	.	voice	1G 1b 1dd
=51	=51	=51	=51	=51	=51
1I7	C:maj7	98.406	.	voice	1C 1e 1g 1b
=52	=52	=52	=52	=52	=52
1Im7	C:7	100.371	.	voice	1C 1e 1g 1b
=53	=53	=53	=53	=53	=53
1IV7	F:maj7	102.336	newline	voice	1F 1a 1cc 1ee
=54	=54	=54	=54	=54	=54
1iii7	E:min7	104.275	.	voice	1E 1g 1b 1dd
=55	=55	=55	=55	=55	=55
1IV7	F:maj7	106.214	.	voice	1F 1a 1cc 1ee
=56	=56	=56	=56	=56	=56
1iii7	E:min7	108.153	.	voice	1E 1g 1b 1dd
=57	=57	=57	=57	=57	=57
1IV7	F:maj7	110.092	newline	voice	1F 1a 1cc 1ee
=58	=58	=58	=58	=58	=58
1II7	D:7	112.036	.	voice	1D 1f# 1a 1cc
=59	=59	=59	=59	=59	=59
1V	G:sus4(b7,9)	113.981	.	voice	1G 1b 1dd
=60	=60	=60	=60	=60	=60
1V	G:sus4(b7,9)	115.926	.	voice	1G 1b 1dd
=61	=61	=61	=61	=61	=61
*>B_chorus	*>B_chorus	*>B_chorus	*>B_chorus	*>B_chorus	*>B_chorus
1V	G:sus4(b7,9)	117.871	newline	voice	1G 1b 1dd
=62	=62	=62	=62	=62	=62
1V	G:sus4(b7,9)	119.814	.	voice	1G 1b 1dd
=63	=63	=63	=63	=63	=63
1V	G:sus4(b7,9)	121.757	.	voice	1G 1b 1dd
=64	=64	=64	=64	=64	=64
1V	G:sus4(b7,9)	123.701	.	voice	1G 1b 1dd
=65	=65	=65	=65	=65	=65
1-VI7	A-:maj9	125.644	newline	voice	1A- 1cc 1ee- 1gg
=66	=66	=66	=66	=66	=66
1-VII	B-:maj	127.615	.	voice	1B- 1dd 1ff
=67	=67	=67	=67	=67	=67
1I7	C:maj7	129.585	.	voice	1C 1e 1g 1b
=68	=68	=68	=68	=68	=68
1I7	C:maj7	131.555	.	voice	1C 1e 1g 1b
=69	=69	=69	=69	=69	=69
1V	G:sus4(b7,9)	133.526	newline	voice	1G 1b 1dd
=70	=70	=70	=70	=70	=70
1V	G:sus4(b7,9)	135.473	.	voice	1G 1b 1dd
=71	=71	=71	=71	=71	=71
1V	G:sus4(b7,9)	137.42	.	voice	1G 1b 1dd
=72	=72	=72	=72	=72	=72
1V	G:sus4(b7,9)	139.367	.	voice	1G 1b 1dd
=73	=73	=73	=73	=73	=73
1-VI7	A-:maj9	141.314	newline	voice	1A- 1cc 1ee- 1gg
=74	=74	=74	=74	=74	=74
1-VII	B-:maj	143.277	.	voice	1B- 1dd 1ff
=75	=75	=75	=75	=75	=75
1I7	C:maj7	145.24	.	voice	1C 1e 1g 1b
=76	=76	=76	=76	=76	=76
1I7	C:maj7	147.203	.	voice	1C 1e 1g 1b
=77	=77	=77	=77	=77	=77
*>B_chorus	*>B_chorus	*>B_chorus	*>B_chorus	*>B_chorus	*>B_chorus
1V	G:sus4(b7,9)	149.166	newline	voice	1G 1b 1dd
=78	=78	=78	=78	=78	=78
1V	G:sus4(b7,9)	151.136	.	voice	1G 1b 1dd
=79	=79	=79	=79	=79	=79
1V	G:sus4(b7,9)	153.107	.	voice	1G 1b 1dd
=80	=80	=80	=80	=80	=80
1V	G:sus4(b7,9)	155.077	.	voice	1G 1b 1dd
=81	=81	=81	=81	=81	=81
1-VI7	A-:maj9	157.047	newline	voice	1A- 1cc 1ee- 1gg
=82	=82	=82	=82	=82	=82
1-VII	B-:maj	159.001	.	voice	1B- 1dd 1ff
=83	=83	=83	=83	=83	=83
1I7	C:maj7	160.954	.	voice	1C 1e 1g 1b
=84	=84	=84	=84	=84	=84
1I7	C:maj7	162.908	.	voice	1C 1e 1g 1b
=85	=85	=85	=85	=85	=85
1V	G:sus4(b7,9)	164.861	newline	voice	1G 1b 1dd
=86	=86	=86	=86	=86	=86
1V	G:sus4(b7,9)	166.812	.	voice	1G 1b 1dd
=87	=87	=87	=87	=87	=87
1V	G:sus4(b7,9)	168.764	.	voice	1G 1b 1dd
=88	=88	=88	=88	=88	=88
1V	G:sus4(b7,9)	170.715	.	voice	1G 1b 1dd
=89	=89	=89	=89	=89	=89
1-VI7	A-:maj9	172.666	newline	voice	1A- 1cc 1ee- 1gg
=90	=90	=90	=90	=90	=90
1-VII	B-:maj	174.627	.	voice	1B- 1dd 1ff
=91	=91	=91	=91	=91	=91
1I7	C:maj7	176.588	.	voice	1C 1e 1g 1b
=92	=92	=92	=92	=92	=92
1I7	C:maj7	178.55	.	voice	1C 1e 1g 1b
=93	=93	=93	=93	=93	=93
*>B2_fadeout	*>B2_fadeout	*>B2_fadeout	*>B2_fadeout	*>B2_fadeout	*>B2_fadeout
1V	G:sus4(b7,9)	180.511	newline	voice	1G 1b 1dd
=94	=94	=94	=94	=94	=94
1V	G:sus4(b7,9)	182.461	.	voice	1G 1b 1dd
=95	=95	=95	=95	=95	=95
1V	G:sus4(b7,9)	184.411	.	voice	1G 1b 1dd
=96	=96	=96	=96	=96	=96
1V	G:sus4(b7,9)	186.361	.	voice	1G 1b 1dd
=97	=97	=97	=97	=97	=97
1V	G:sus4(b7,9)	188.311	newline	voice	1G 1b 1dd
=98	=98	=98	=98	=98	=98
1V	G:sus4(b7,9)	189.739	.	voice	1G 1b 1dd
=99	=99	=99	=99	=99	=99
1V	G:sus4(b7,9)	191.168	.	voice	1G 1b 1dd
=100	=100	=100	=100	=100	=100
1V	G:sus4(b7,9)	192.597	.	voice	1G 1b 1dd
1r;	N	194.026	.	r	1r;
1r;	N	196.389	.	r	1r;
*-	*-	*-	*-	*-	*-
!!!OTL: Ten Percent
!!!COC: Double Exposure
!!!BillboardChartDate: 1976/06/19
!!!BillboardPeak: 54
!!!BillboardWeeksOnChart: 9
!!!SampleTargetRank: 87
!!!SampleActualRank: 88
!!!SampleID#: 1164
!!!RDF**harmony: **recip + pitch class of root + harmonic quality
!!!RDF**harte: Chris Harte's syntax, used by MIREX
!!!RDF**phrase: newline = linebreak in original McGill transcription
!!!RDF**timestamp: McGill audio timestamp in seconds
!!!RDF**leadinstrument: original McGill primary instrumentation annotation
!!!RDT: 2017/01/12/
!!!ENC: Nathaniel Condit-Schultz
!!!EST: Awating manual error checking and editing.
